!!!COM:	Busnoys, Antoine
!!!CDT:	~1430///-1492/11/06
!!!OTL:	Ha que ville II
!!!AGN:	Song; Chanson
!!!SCT:	Bus3024
!!!SCA:	Bus3024
!!!voices:	3
**kern	**kern	**kern
*staff3	*staff2	*staff1
*Ivox	*Ivox	*Ivox
*I"Contra	*I"Tenor	*I"Superius
*I'C	*I'T	*I'S
*clefG2	*clefG2	*clefG2
*k[b-]	*k[b-]	*k[b-]
*M2/1	*M2/1	*M2/1
*met(C|)	*met(C|)	*met(C|)
=1-	=1-	=1-
!LO:TX:Z=14:t=Canon at the unison (2, 4 breves)	!	!
1g	0r	0r
2b-	.	.
[2a	.	.
=2	=2	=2
4a]	0r	0r
4g	.	.
1g	.	.
2f#i	.	.
=3	=3	=3
2.g	1g	0r
8fL	.	.
8eJ	.	.
2.d	2b-	.
.	[2a	.
4c	.	.
=4	=4	=4
2d	4a]	0r
.	4g	.
2B-	1g	.
1A	.	.
.	2f#i	.
=5	=5	=5
1G	2.g	1g
.	8fL	.
.	8eJ	.
1r	2.d	2b-
.	.	[2a
.	4c	.
=6	=6	=6
1r	2d	4a]
.	.	4g
.	2B-	1g
1c	1A	.
.	.	2f#i
=7	=7	=7
*clefGv2	*clefGv2	*clefGv2
2B-	1G	2.g
1B-	.	.
.	.	8fL
.	.	8eJ
.	1r	2.d
2A	.	.
.	.	4c
=8	=8	=8
2B-	1r	2d
2G	.	2B-
2F	1c	1A
2A	.	.
=9	=9	=9
2B-	2B-	1G
2d	1B-	.
1c	.	1r
.	2A	.
=10	=10	=10
1B-	2B-	1r
.	2G	.
1r	2F	1c
.	2A	.
=11	=11	=11
1f	2B-	2B-
.	2d	1B-
2.g	1c	.
.	.	2A
4f	.	.
=12	=12	=12
2d	1B-	2B-
1d	.	2G
.	1r	2F
2c	.	2A
=13	=13	=13
2d	1f	2B-
2.B-	.	2d
.	2.g	1c
4G	.	.
2A	.	.
.	4f	.
=14	=14	=14
2.B-	2d	1B-
.	1d	.
8AL	.	.
8GJ	.	.
1F	.	1r
.	2c	.
=15	=15	=15
0r	2d	1f
.	2.B-	.
.	.	2.g
.	4G	.
.	2A	.
.	.	4f
=16	=16	=16
1G	2.B-	2d
.	.	1d
.	8AL	.
.	8GJ	.
1A	1F	.
.	.	2c
=17	=17	=17
1B-	0r	2d
.	.	2.B-
1c	.	.
.	.	4G
.	.	2A
=18	=18	=18
1d	1G	2.B-
.	.	8AL
.	.	8GJ
2c	1A	1F
[2f	.	.
=19	=19	=19
2f]	1B-	0r
2d	.	.
2e-	1c	.
2c	.	.
=20	=20	=20
1B-	1d	1G
1r	2c	1A
.	[2f	.
=21	=21	=21
1r	2f]	1B-
.	2d	.
1A	2e-	1c
.	2c	.
=22	=22	=22
2G	1B-	1d
2B-	.	.
2c	1r	2c
[2d	.	[2f
=23	=23	=23
2d]	1r	2f]
2B-	.	2d
2c	1A	2e-
2A	.	2c
=24	=24	=24
2.B-	2G	1B-
.	2B-	.
8AL	.	.
8GJ	.	.
2.F#i	2c	1r
.	[2d	.
4E	.	.
=25	=25	=25
1G	2d]	1r
.	2B-	.
1r	2c	1A
.	2A	.
=26	=26	=26
1g	2.B-	2G
.	.	2B-
.	8AL	.
.	8GJ	.
1a	2.F#i	2c
.	.	[2d
.	4E	.
=27	=27	=27
1b-	1G	2d]
.	.	2B-
1a	1r	2c
.	.	2A
=28	=28	=28
2d	1g	2.B-
2e	.	.
.	.	8AL
.	.	8GJ
4f	1a	2.F#i
4e	.	.
4d	.	.
4c	.	4E
=29	=29	=29
2B-	1b-	1G
1d	.	.
.	1a	1r
2c	.	.
=30	=30	=30
2B-	2d	1g
2G	2e	.
2r	4f	1a
.	4e	.
2F	4d	.
.	4c	.
=31	=31	=31
1G	2B-	1b-
.	1d	.
1A	.	1a
.	2c	.
=32	=32	=32
2G	2B-	2d
2.b-	2G	2e
.	2r	4f
4a	.	4e
[2a	2F	4d
.	.	4c
=33	=33	=33
4a]	1G	2B-
4g	.	.
2.g	.	1d
.	1A	.
4e	.	.
2f#i	.	2c
=34	=34	=34
0gl	0Gl	0dl
==	==	==
*-	*-	*-
!!!RDF**kern: l=long note in original notation
!!!RDF**kern: i=editorial accidental
!!!ENC:	Chris Gage 04-20-2015
!!!END:	2015/05/05/
!!!EED:	Jesse Rodin
!!!EEV:	2015/09/21/
!!!ONB:	Translated from MusicXML and edited on 2015/09/21/ by Craig Sapp
!!muse2ps: C^@{COM}^i2I150v95,95,150Q16
